images/icons/shop.svg

<svg fill="none" height="24" viewBox="0 0 24 24" width="24" xmlns="http://www.w3.org/2000/svg" xmlns:xlink="http://www.w3.org/1999/xlink"><clipPath id="a"><path d="m0 0h24v24h-24z"/></clipPath><g clip-path="url(#a)"><path d="m1.26628 2.93139c1.91533-1.30803 4.30948-2.93139 9.10952-2.93139 8.1167 0 12.4963 6.4 12.508 12.4496 0 6.5168-4.7066 11.3402-11.2234 11.5504h-.6306c-5.47739-.1635-9.70513-4.0175-9.85695-9.0745-.12847-3.9824 2.12554-6.1547 4.04087-7.28754.05839-.03504.11679-.04672.18686-.0584.19854-.04671.40876.05839.49051.24526l1.70511 3.21168c0 .0117.01168.0117.01168.0234.11679.2102.04672.4671-.15182.5839-1.22628.8876-1.76351 1.9036-1.76351 3.2701 0 2.5927 2.26569 4.3445 5.64085 4.3562 4.0993-.0584 6.6453-2.7679 6.6453-7.0657 0-2.33579-.8993-4.55476-2.3942-5.93287-1.343-1.24963-3.1883-1.8219-5.3255-1.64671-3.82941.30355-5.32458 1.55245-6.31728 2.38165l-.00099.00083-.15182.11679c-.0584.04671-.11679.07007-.18687.09343-.21022.08175-.45547-.01168-.5489-.2219l-1.9854-3.39854c-.12847-.21022-.070074-.49051.14014-.63066z" fill="#fff"/></g></svg>

<svg width="24" height="24" viewBox="0 0 24 24" fill="none" xmlns="http://www.w3.org/2000/svg">
<g clip-path="url(#clip0_1450_704)">
<path d="M1.26628 2.93139C3.18161 1.62336 5.57576 0 10.3758 0C18.4925 0 22.8721 6.4 22.8838 12.4496C22.8838 18.9664 18.1772 23.7898 11.6604 24H11.0298C5.55241 23.8365 1.32467 19.9825 1.17285 14.9255C1.04438 10.9431 3.29839 8.7708 5.21372 7.63796C5.27211 7.60292 5.33051 7.59124 5.40058 7.57956C5.59912 7.53285 5.80934 7.63795 5.89109 7.82482L7.5962 11.0365C7.5962 11.0482 7.60788 11.0482 7.60788 11.0599C7.72467 11.2701 7.6546 11.527 7.45606 11.6438C6.22978 12.5314 5.69255 13.5474 5.69255 14.9139C5.69255 17.5066 7.95824 19.2584 11.3334 19.2701C15.4327 19.2117 17.9787 16.5022 17.9787 12.2044C17.9787 9.86861 17.0794 7.64964 15.5845 6.27153C14.2415 5.0219 12.3962 4.44963 10.259 4.62482C6.42959 4.92837 4.93442 6.17727 3.94172 7.00647L3.94073 7.0073L3.78891 7.12409C3.73051 7.1708 3.67212 7.19416 3.60204 7.21752C3.39182 7.29927 3.14657 7.20584 3.05314 6.99562L1.06774 3.59708C0.93927 3.38686 0.997666 3.10657 1.20788 2.96642L1.26628 2.93139Z" fill="white"/>
</g>
<defs>
<clipPath id="clip0_1450_704">
<rect width="24" height="24" fill="white"/>
</clipPath>
</defs>
</svg>
